X: 14
T: I WANNA BE LOVED BY YOU
C: Stothart-Ruby
M: C
L: 1/8
K: Bb
|: "Bb"z2 F2 G>_G F2 | "Bb"c2 =B2 _B2 G2 | "Bb+"_G2 "F+"F2 "Ab"=G>_G "G7"F2 | "C7"B,2 B,2 B,4 |
"F7"z2 F2 G>_G F2 | "F7"A2 A2 A3 F | "Bb"B8- |[1 "C7"B4- "F7"B2z2 :|
[2 "Bb7"z2 B2 c>=B _B2 | "Eb"(G2 B6) | "Ebm"z2 B2 c>=B _B2 | "Bb"B2 F6 |
"Bb7"z2 B2 c>=B _B2 | "Eb"(G2 B4) G2 | "C7"B4 d2 B2 | "F Dm A Ab"F8- | "C7"F2z2 "F7"z4 |
"Bb"z2 F2 G>_G F2 | "Bb"c2 =B2 _B2 G2 | "Bb+"_G2 "F+"F2 "Ab"=G>_G "G7"F2 | "C7"B,2 B,2 B,4 |
"F7"z2 F2 G>_G F2 | "F7"A2 A2 A3 F | "Bb A7 F7"B8- | "Bb"B6 z2 |]


